!!!XEN: I am standing till daylight
!!!AGN: Moccasin game [gambling] song
!!!COM: Anonymous
!!!CNT: Native American -- Ojibway
!!!TXO: Ojibway
!!!MLC: Red Lake reservation, northern Minnesota, U.S.A.
!!!MRD: 1907-1909///
!!!MPN: Gi'wita'bines ("Spotted bird")
**kern
*MM126
*Imale
*k[f#c#]
*clefG2
*M2/4
=1
4.f#
8f#
=2
4f#
8e
8d
=3
8f#
8f#
8e
8e
qf#
=4
8d
8B
4d
=5
8.B
16B
[4B
=6
4B]
8F#
8r
=7
8.e
16d
4c#
qe
=8
8d
8B
4d
*clefF4
=9
4.B
8c#
8B
8A
=10
4.F#
8A
8F#
8E
=11
2.D
=12
2D
8r
8d
=13
4.B
8c#
8B
8A
=14
4.F#
16E
16D
8E
8D
=15
8.BB
16BB
[2BB
=16
2.BB]
*clefG2
=17
8a
8a
8a
8a
4f#
=18
4f#
4d
=19
8f#
[8d
4d]
=20
4d
4B
=21
8d
8B
4B
=22
4.B
8B
=23
2B
==
*-
!!!OCL: Frances Densmore
!!!YOR: Chippewa [i.e., Ojibway] Music, Bulletin 45 of the Bureau of American Ethnology, Smitsonian Institution
!!!ONM: 176
!!!PPG: 190
!!!PUB: published
!!!PPR: Government Printing Office
!!!PPP: Washington, D.C.
!!!PDT: 1909///
!!!EST: missing clef changes, text, drum tempo, and drum part
!!!YEC: Copyright 1998 Paul von Hippel
!!!YEM: Rights to all derivate electronic formats reserved.
!!!EFL: 19/42
